X: 275
T: The Humours Of Glendart
R: jig
M: 6/8
L: 1/8
K:Dmaj
A|"Bm"BAF "D"AFD|~F3 DFA|"Bm"BAF "D"AFD|"A" FEE E2 A|
"Bm"BAF "D"AFD|FEF DFA|"Bm"dcB "A"AFE|"D"FDD D2:||
A|"D"def d2 B|AFA AFA|def d2 f|"A"ede "Bm"fdB|
"D"def d2 B|~A3 ABc|"Bm"dcB "A" AFE|"D"FDD D2:||


